Newaita-dark/apps/32/libreoffice-main.svg

<?xml version="1.0" encoding="UTF-8"?>
<svg xmlns="http://www.w3.org/2000/svg" xmlns:xlink="http://www.w3.org/1999/xlink" width="32pt" height="32pt" viewBox="0 0 32 32" version="1.1">
<defs>
<linearGradient id="linear0" gradientUnits="userSpaceOnUse" x1="254" y1="233.5" x2="254" y2="254.666672" gradientTransform="matrix(0.062506,0,0,0.062506,-0.00000381506,13.438785)">
<stop offset="0" style="stop-color:rgb(0%,0%,0%);stop-opacity:0.27451;"/>
<stop offset="1" style="stop-color:rgb(0%,0%,0%);stop-opacity:0;"/>
</linearGradient>
<radialGradient id="radial0" gradientUnits="userSpaceOnUse" cx="450.908936" cy="189.579361" fx="450.908936" fy="189.579361" r="21.166656" gradientTransform="matrix(0.00000017417,-0.0781325,-0.140638,-0.000000101539,48.823045,63.595333)">
<stop offset="0" style="stop-color:rgb(0%,0%,0%);stop-opacity:0.313725;"/>
<stop offset="0.222222" style="stop-color:rgb(0%,0%,0%);stop-opacity:0.27451;"/>
<stop offset="1" style="stop-color:rgb(0%,0%,0%);stop-opacity:0;"/>
</radialGradient>
<radialGradient id="radial1" gradientUnits="userSpaceOnUse" cx="450.908936" cy="189.579361" fx="450.908936" fy="189.579361" r="21.166656" gradientTransform="matrix(-0.00000017417,0.0781325,0.140638,0.000000101539,-17.731532,-7.527479)">
<stop offset="0" style="stop-color:rgb(0%,0%,0%);stop-opacity:0.313725;"/>
<stop offset="0.222222" style="stop-color:rgb(0%,0%,0%);stop-opacity:0.27451;"/>
<stop offset="1" style="stop-color:rgb(0%,0%,0%);stop-opacity:0;"/>
</radialGradient>
<radialGradient id="radial2" gradientUnits="userSpaceOnUse" cx="450.908936" cy="189.579361" fx="450.908936" fy="189.579361" r="21.166656" gradientTransform="matrix(-0.00000017417,-0.0781325,0.140638,-0.000000101539,-17.731532,63.595333)">
<stop offset="0" style="stop-color:rgb(0%,0%,0%);stop-opacity:0.313725;"/>
<stop offset="0.222222" style="stop-color:rgb(0%,0%,0%);stop-opacity:0.27451;"/>
<stop offset="1" style="stop-color:rgb(0%,0%,0%);stop-opacity:0;"/>
</radialGradient>
<radialGradient id="radial3" gradientUnits="userSpaceOnUse" cx="450.908936" cy="189.579361" fx="450.908936" fy="189.579361" r="21.166656" gradientTransform="matrix(0.00000017417,0.0781325,-0.140638,0.000000101539,48.823043,-7.527479)">
<stop offset="0" style="stop-color:rgb(0%,0%,0%);stop-opacity:0.313725;"/>
<stop offset="0.222222" style="stop-color:rgb(0%,0%,0%);stop-opacity:0.27451;"/>
<stop offset="1" style="stop-color:rgb(0%,0%,0%);stop-opacity:0;"/>
</radialGradient>
<filter id="alpha" filterUnits="objectBoundingBox" x="0%" y="0%" width="100%" height="100%">
  <feColorMatrix type="matrix" in="SourceGraphic" values="0 0 0 0 1 0 0 0 0 1 0 0 0 0 1 0 0 0 1 0"/>
</filter>
<mask id="mask0">
  <g filter="url(#alpha)">
<rect x="0" y="0" width="32" height="32" style="fill:rgb(0%,0%,0%);fill-opacity:0.988235;stroke:none;"/>
  </g>
</mask>
<linearGradient id="linear1" gradientUnits="userSpaceOnUse" x1="940" y1="1695.118164" x2="940" y2="175.118118" gradientTransform="matrix(0.016538,0,0,0.016538,0,0)">
<stop offset="0" style="stop-color:rgb(93.333333%,93.333333%,93.333333%);stop-opacity:1;"/>
<stop offset="1" style="stop-color:rgb(96.078431%,96.078431%,96.078431%);stop-opacity:1;"/>
</linearGradient>
<clipPath id="clip1">
  <rect x="0" y="0" width="32" height="32"/>
</clipPath>
<g id="surface5" clip-path="url(#clip1)">
<path style=" stroke:none;fill-rule:nonzero;fill:url(#linear1);" d="M 7.277344 2.894531 C 6.542969 2.894531 5.953125 3.484375 5.953125 4.21875 L 5.953125 26.710938 C 5.953125 27.445312 6.542969 28.035156 7.277344 28.035156 L 23.816406 28.035156 C 24.546875 28.035156 25.136719 27.445312 25.136719 26.710938 L 25.136719 8.851562 L 19.183594 2.894531 Z M 20.507812 2.894531 L 25.136719 7.527344 L 25.136719 4.21875 C 25.136719 3.484375 24.546875 2.894531 23.816406 2.894531 Z M 20.507812 2.894531 "/>
</g>
<mask id="mask1">
  <g filter="url(#alpha)">
<rect x="0" y="0" width="32" height="32" style="fill:rgb(0%,0%,0%);fill-opacity:0.988235;stroke:none;"/>
  </g>
</mask>
<linearGradient id="linear2" gradientUnits="userSpaceOnUse" x1="940" y1="1695.118164" x2="940" y2="175.118118" gradientTransform="matrix(0.016538,0,0,0.016538,0,0)">
<stop offset="0" style="stop-color:rgb(25.882353%,25.882353%,25.882353%);stop-opacity:1;"/>
<stop offset="1" style="stop-color:rgb(38.039216%,38.039216%,38.039216%);stop-opacity:1;"/>
</linearGradient>
<clipPath id="clip2">
  <rect x="0" y="0" width="32" height="32"/>
</clipPath>
<g id="surface8" clip-path="url(#clip2)">
<path style=" stroke:none;fill-rule:nonzero;fill:url(#linear2);" d="M 20.507812 2.894531 L 25.136719 7.527344 L 25.136719 4.21875 C 25.136719 3.484375 24.546875 2.894531 23.816406 2.894531 Z M 20.507812 2.894531 "/>
</g>
<mask id="mask2">
  <g filter="url(#alpha)">
<rect x="0" y="0" width="32" height="32" style="fill:rgb(0%,0%,0%);fill-opacity:0.988235;stroke:none;"/>
  </g>
</mask>
<clipPath id="clip3">
  <rect x="0" y="0" width="32" height="32"/>
</clipPath>
<g id="surface11" clip-path="url(#clip3)">
<path style=" stroke:none;fill-rule:nonzero;fill:rgb(100%,100%,100%);fill-opacity:0.392157;" d="M 7.277344 2.894531 C 6.542969 2.894531 5.953125 3.484375 5.953125 4.21875 L 5.953125 4.550781 C 5.953125 3.816406 6.542969 3.226562 7.277344 3.226562 L 19.183594 3.226562 L 25.136719 9.179688 L 25.136719 8.851562 L 19.183594 2.894531 Z M 20.507812 2.894531 L 20.839844 3.226562 L 23.816406 3.226562 C 24.546875 3.226562 25.136719 3.816406 25.136719 4.550781 L 25.136719 4.21875 C 25.136719 3.484375 24.546875 2.894531 23.816406 2.894531 Z M 20.507812 2.894531 "/>
</g>
<mask id="mask3">
  <g filter="url(#alpha)">
<rect x="0" y="0" width="32" height="32" style="fill:rgb(0%,0%,0%);fill-opacity:0.988235;stroke:none;"/>
  </g>
</mask>
<clipPath id="clip4">
  <rect x="0" y="0" width="32" height="32"/>
</clipPath>
<g id="surface14" clip-path="url(#clip4)">
<path style=" stroke:none;fill-rule:nonzero;fill:rgb(0%,0%,0%);fill-opacity:0.235294;" d="M 20.507812 2.894531 L 25.136719 7.527344 L 25.136719 7.035156 L 20.996094 2.894531 Z M 5.953125 26.21875 L 5.953125 26.710938 C 5.953125 27.445312 6.542969 28.035156 7.277344 28.035156 L 23.816406 28.035156 C 24.546875 28.035156 25.136719 27.445312 25.136719 26.710938 L 25.136719 26.21875 C 25.136719 26.953125 24.546875 27.542969 23.816406 27.542969 L 7.277344 27.542969 C 6.542969 27.542969 5.953125 26.953125 5.953125 26.21875 Z M 5.953125 26.21875 "/>
</g>
<mask id="mask4">
  <g filter="url(#alpha)">
<rect x="0" y="0" width="32" height="32" style="fill:rgb(0%,0%,0%);fill-opacity:0.988235;stroke:none;"/>
  </g>
</mask>
<clipPath id="clip5">
  <rect x="0" y="0" width="32" height="32"/>
</clipPath>
<g id="surface17" clip-path="url(#clip5)">
<path style=" stroke:none;fill-rule:nonzero;fill:rgb(12.941177%,12.941177%,12.941177%);fill-opacity:1;" d="M 7.277344 2.800781 C 6.492188 2.800781 5.859375 3.4375 5.859375 4.21875 L 5.859375 26.710938 C 5.859375 27.496094 6.492188 28.128906 7.277344 28.128906 L 23.816406 28.128906 C 24.597656 28.128906 25.230469 27.496094 25.230469 26.710938 L 25.230469 8.851562 C 25.230469 8.824219 25.222656 8.800781 25.203125 8.785156 L 19.25 2.828125 C 19.234375 2.8125 19.210938 2.800781 19.183594 2.800781 Z M 20.507812 2.800781 C 20.46875 2.800781 20.433594 2.824219 20.421875 2.859375 C 20.40625 2.894531 20.414062 2.9375 20.441406 2.960938 L 25.070312 7.59375 C 25.097656 7.621094 25.136719 7.628906 25.171875 7.613281 C 25.207031 7.597656 25.230469 7.566406 25.230469 7.527344 L 25.230469 4.21875 C 25.230469 3.4375 24.597656 2.800781 23.816406 2.800781 Z M 7.277344 2.988281 L 19.144531 2.988281 L 25.042969 8.886719 L 25.042969 26.710938 C 25.042969 27.394531 24.496094 27.941406 23.816406 27.941406 L 7.277344 27.941406 C 6.59375 27.941406 6.046875 27.394531 6.046875 26.710938 L 6.046875 4.21875 C 6.046875 3.535156 6.59375 2.988281 7.277344 2.988281 Z M 20.734375 2.988281 L 23.816406 2.988281 C 24.496094 2.988281 25.042969 3.535156 25.042969 4.21875 L 25.042969 7.300781 Z M 20.734375 2.988281 "/>
</g>
<mask id="mask5">
  <g filter="url(#alpha)">
<rect x="0" y="0" width="32" height="32" style="fill:rgb(0%,0%,0%);fill-opacity:0.988235;stroke:none;"/>
  </g>
</mask>
<linearGradient id="linear3" gradientUnits="userSpaceOnUse" x1="248.708344" y1="0.666667" x2="248.708344" y2="-221.583328" gradientTransform="matrix(1,0,0,1,0,127)">
<stop offset="0" style="stop-color:rgb(25.882353%,25.882353%,25.882353%);stop-opacity:1;"/>
<stop offset="1" style="stop-color:rgb(38.039216%,38.039216%,38.039216%);stop-opacity:1;"/>
</linearGradient>
<clipPath id="clip6">
  <rect x="0" y="0" width="32" height="32"/>
</clipPath>
<g id="surface20" clip-path="url(#clip6)">
<path style="fill-rule:nonzero;fill:url(#linear3);stroke-width:3;stroke-linecap:round;stroke-linejoin:round;stroke:rgb(12.941177%,12.941177%,12.941177%);stroke-opacity:1;stroke-miterlimit:4;" d="M 185.232311 -62.827032 L 312.220184 -62.827032 C 318.032129 -62.827032 322.781676 -58.077485 322.781676 -52.26554 L 322.781676 106.469301 C 322.781676 112.34374 318.032129 117.093287 312.220184 117.093287 L 185.232311 117.093287 C 179.357872 117.093287 174.608326 112.34374 174.608326 106.469301 L 174.608326 -52.26554 C 174.608326 -58.077485 179.357872 -62.827032 185.232311 -62.827032 Z M 185.232311 -62.827032 " transform="matrix(0.062506,0,0,0.062506,0,13.438783)"/>
</g>
</defs>
<g id="surface1">
<path style=" stroke:none;fill-rule:nonzero;fill:url(#linear0);" d="M 8.601562 28.035156 L 22.492188 28.035156 L 22.492188 29.355469 L 8.601562 29.355469 Z M 8.601562 28.035156 "/>
<path style=" stroke:none;fill-rule:nonzero;fill:url(#radial0);" d="M 22.492188 28.035156 L 25.136719 28.035156 L 25.136719 26.710938 L 22.492188 26.710938 Z M 22.492188 28.035156 "/>
<path style=" stroke:none;fill-rule:nonzero;fill:url(#radial1);" d="M 8.601562 28.035156 L 5.953125 28.035156 L 5.953125 29.355469 L 8.601562 29.355469 Z M 8.601562 28.035156 "/>
<path style=" stroke:none;fill-rule:nonzero;fill:url(#radial2);" d="M 8.601562 28.035156 L 5.953125 28.035156 L 5.953125 26.710938 L 8.601562 26.710938 Z M 8.601562 28.035156 "/>
<path style=" stroke:none;fill-rule:nonzero;fill:url(#radial3);" d="M 22.492188 28.035156 L 25.136719 28.035156 L 25.136719 29.355469 L 22.492188 29.355469 Z M 22.492188 28.035156 "/>
<use xlink:href="#surface5" mask="url(#mask0)"/>
<use xlink:href="#surface8" mask="url(#mask1)"/>
<use xlink:href="#surface11" mask="url(#mask2)"/>
<use xlink:href="#surface14" mask="url(#mask3)"/>
<use xlink:href="#surface17" mask="url(#mask4)"/>
<use xlink:href="#surface20" mask="url(#mask5)"/>
</g>
</svg>

<svg xmlns="http://www.w3.org/2000/svg" xmlns:xlink="http://www.w3.org/1999/xlink" width="32pt" height="32pt" viewBox="0 0 32 32"><defs><linearGradient id="k" gradientUnits="userSpaceOnUse" x1="254" y1="233.5" x2="254" y2="254.667" gradientTransform="matrix(.0625 0 0 .0625 0 13.439)"><stop offset="0" stop-opacity=".275"/><stop offset="1" stop-opacity="0"/></linearGradient><radialGradient id="l" gradientUnits="userSpaceOnUse" cx="450.909" cy="189.579" fx="450.909" fy="189.579" r="21.167" gradientTransform="matrix(0 -.07813 -.14064 0 48.823 63.595)"><stop offset="0" stop-opacity=".314"/><stop offset=".222" stop-opacity=".275"/><stop offset="1" stop-opacity="0"/></radialGradient><radialGradient id="m" gradientUnits="userSpaceOnUse" cx="450.909" cy="189.579" fx="450.909" fy="189.579" r="21.167" gradientTransform="matrix(0 .07813 .14064 0 -17.732 -7.527)"><stop offset="0" stop-opacity=".314"/><stop offset=".222" stop-opacity=".275"/><stop offset="1" stop-opacity="0"/></radialGradient><radialGradient id="n" gradientUnits="userSpaceOnUse" cx="450.909" cy="189.579" fx="450.909" fy="189.579" r="21.167" gradientTransform="matrix(0 -.07813 .14064 0 -17.732 63.595)"><stop offset="0" stop-opacity=".314"/><stop offset=".222" stop-opacity=".275"/><stop offset="1" stop-opacity="0"/></radialGradient><radialGradient id="o" gradientUnits="userSpaceOnUse" cx="450.909" cy="189.579" fx="450.909" fy="189.579" r="21.167" gradientTransform="matrix(0 .07813 -.14064 0 48.823 -7.527)"><stop offset="0" stop-opacity=".314"/><stop offset=".222" stop-opacity=".275"/><stop offset="1" stop-opacity="0"/></radialGradient><filter id="a" filterUnits="objectBoundingBox" x="0%" y="0%" width="100%" height="100%"><feColorMatrix in="SourceGraphic" values="0 0 0 0 1 0 0 0 0 1 0 0 0 0 1 0 0 0 1 0"/></filter><mask id="q"><path fill-opacity=".988" d="M0 0h32v32H0z" filter="url(#a)"/></mask><linearGradient id="c" gradientUnits="userSpaceOnUse" x1="940" y1="1695.118" x2="940" y2="175.118" gradientTransform="rotate(.891) scale(.01654)"><stop offset="0" stop-color="#eee"/><stop offset="1" stop-color="#f5f5f5"/></linearGradient><clipPath id="b"><path d="M0 0h32v32H0z"/></clipPath><g id="p" clip-path="url(#b)"><path d="M7.277 2.895a1.32 1.32 0 0 0-1.324 1.324V26.71c0 .734.59 1.324 1.324 1.324h16.54c.73 0 1.32-.59 1.32-1.324V8.85l-5.953-5.956zm13.23 0l4.63 4.632V4.22a1.32 1.32 0 0 0-1.32-1.324zm0 0" fill="url(#c)"/></g><mask id="s"><path fill-opacity=".988" d="M0 0h32v32H0z" filter="url(#a)"/></mask><linearGradient id="e" gradientUnits="userSpaceOnUse" x1="940" y1="1695.118" x2="940" y2="175.118" gradientTransform="rotate(.891) scale(.01654)"><stop offset="0" stop-color="#424242"/><stop offset="1" stop-color="#616161"/></linearGradient><clipPath id="d"><path d="M0 0h32v32H0z"/></clipPath><g id="r" clip-path="url(#d)"><path d="M20.508 2.895l4.629 4.632V4.22a1.32 1.32 0 0 0-1.32-1.324zm0 0" fill="url(#e)"/></g><mask id="u"><path fill-opacity=".988" d="M0 0h32v32H0z" filter="url(#a)"/></mask><clipPath id="f"><path d="M0 0h32v32H0z"/></clipPath><g id="t" clip-path="url(#f)"><path d="M7.277 2.895a1.32 1.32 0 0 0-1.324 1.324v.332c0-.735.59-1.324 1.324-1.324h11.907l5.953 5.953v-.328l-5.953-5.957zm13.23 0l.333.332h2.976c.73 0 1.32.59 1.32 1.324v-.332a1.32 1.32 0 0 0-1.32-1.324zm0 0" fill="#fff" fill-opacity=".392"/></g><mask id="w"><path fill-opacity=".988" d="M0 0h32v32H0z" filter="url(#a)"/></mask><clipPath id="g"><path d="M0 0h32v32H0z"/></clipPath><g id="v" clip-path="url(#g)"><path d="M20.508 2.895l4.629 4.632v-.492l-4.14-4.14zM5.953 26.219v.492c0 .734.59 1.324 1.324 1.324h16.54c.73 0 1.32-.59 1.32-1.324v-.492a1.32 1.32 0 0 1-1.32 1.324H7.276a1.32 1.32 0 0 1-1.324-1.324zm0 0" fill-opacity=".235"/></g><mask id="y"><path fill-opacity=".988" d="M0 0h32v32H0z" filter="url(#a)"/></mask><clipPath id="h"><path d="M0 0h32v32H0z"/></clipPath><g id="x" clip-path="url(#h)"><path d="M7.277 2.8c-.785 0-1.418.638-1.418 1.419V26.71c0 .785.633 1.418 1.418 1.418h16.54c.78 0 1.413-.633 1.413-1.418V8.85c0-.027-.007-.05-.027-.066L19.25 2.828a.094.094 0 0 0-.066-.027zm13.23 0a.09.09 0 0 0-.085.06.089.089 0 0 0 .02.1l4.628 4.634a.09.09 0 0 0 .102.02.093.093 0 0 0 .058-.087V4.22c0-.782-.632-1.418-1.414-1.418zm-13.23.188h11.868l5.898 5.899V26.71c0 .684-.547 1.23-1.227 1.23H7.277c-.683 0-1.23-.546-1.23-1.23V4.219c0-.684.547-1.23 1.23-1.23zm13.457 0h3.082c.68 0 1.227.547 1.227 1.23v3.083zm0 0" fill="#212121"/></g><mask id="A"><path fill-opacity=".988" d="M0 0h32v32H0z" filter="url(#a)"/></mask><linearGradient id="j" gradientUnits="userSpaceOnUse" x1="248.708" y1=".667" x2="248.708" y2="-221.583" gradientTransform="translate(0 127)"><stop offset="0" stop-color="#424242"/><stop offset="1" stop-color="#616161"/></linearGradient><clipPath id="i"><path d="M0 0h32v32H0z"/></clipPath><g id="z" clip-path="url(#i)"><path d="M185.232-62.827H312.22c5.812 0 10.562 4.75 10.562 10.561V106.47c0 5.875-4.75 10.624-10.562 10.624H185.232a10.615 10.615 0 0 1-10.624-10.624V-52.266c0-5.811 4.75-10.561 10.624-10.561zm0 0" transform="matrix(.0625 0 0 .0625 0 13.439)" fill="url(#j)" stroke-width="3" stroke-linecap="round" stroke-linejoin="round" stroke="#212121"/></g></defs><path d="M8.602 28.035h13.89v1.32H8.602zm0 0" fill="url(#k)"/><path d="M22.492 28.035h2.645v-1.324h-2.645zm0 0" fill="url(#l)"/><path d="M8.602 28.035H5.953v1.32h2.649zm0 0" fill="url(#m)"/><path d="M8.602 28.035H5.953v-1.324h2.649zm0 0" fill="url(#n)"/><path d="M22.492 28.035h2.645v1.32h-2.645zm0 0" fill="url(#o)"/><use xlink:href="#p" mask="url(#q)"/><use xlink:href="#r" mask="url(#s)"/><use xlink:href="#t" mask="url(#u)"/><use xlink:href="#v" mask="url(#w)"/><use xlink:href="#x" mask="url(#y)"/><use xlink:href="#z" mask="url(#A)"/></svg>
